X: 5062
T: Bridal March From Unst
R: waltz
M: 3/4
K: Amajor
|:[C2a2]|[A,2A2] [A,2A2] [A,2B2]|[A,4c4] [C2e2]|[Cf][Cg] [C2a2] [A,2c2]|[A,B][A,A] H[A,2B2] [Ca]>[Cf]|
[C2e2] [A,2A2] [A,A][A,B]|[A,2c2] [C2e2] [A,B][A,d]|[A,2c2] [A,2A2] [A,2A2]|[A,4A4]:|
[F2a2]|[F2f2] [F2e2] [F2a2]|[F2f2] [F2e2] [F2a2]|[F2f2] [F2e2] [F2a2]|[F4f4] [F2e2]|
[Ff]>>[Fg] [F2a2] [F2e2]|[Ff]>[Fg] [F2a2] [F2e2]|[Ff][Fg] [F2a2] [F2a2]|[F4a4] [A,2c2]|
[A,2d2] [A,2d2] [A,c][F,B]|[A,2c2] [C2e2] [C2e2]|[Cf][Cg] [C2a2] [A,2c2]|[A,B][A,A] H[A,2B2] [C/a/][C/g/][C/a/][C/f/]|
[C2e2] [A,2A2] [A,A][A,B]|[A,2c2] [C2e2] [A,B][A,d]|[A,2c2] [A,2A2] [A,2A2]|[A,4A4]||

